assets/images/lumios.svg

<svg width="121" height="35" viewBox="0 0 121 35" fill="none" xmlns="http://www.w3.org/2000/svg">
<path d="M35.8892 23.3839V12.0234H39.6746V20.2361H47.8615V23.3876L35.8892 23.3839Z" fill="white"/>
<path d="M62.9153 12.0234V18.422C62.9153 19.7589 62.6513 20.8226 62.1234 21.6131C61.5956 22.4036 60.8399 22.9635 59.8563 23.2927C58.8733 23.6215 57.6445 23.7858 56.1699 23.7858C54.6954 23.7858 53.4666 23.6215 52.4835 23.2927C51.5005 22.964 50.7448 22.4068 50.2164 21.6213C49.688 20.8358 49.4238 19.7694 49.4238 18.422V12.0234H53.2093V18.3107C53.2093 19.1271 53.4638 19.7159 53.9727 20.077C54.4816 20.4381 55.215 20.6187 56.173 20.6187C57.1222 20.6187 57.8536 20.4381 58.3672 20.077C58.8807 19.7159 59.1367 19.1271 59.1352 18.3107V12.0234H62.9153Z" fill="white"/>
<path d="M81.5637 23.3839H77.7783V15.6486H77.6899L74.6947 23.3839H71.8401L68.8027 15.553H68.6998V23.3839H65.1201V12.0234H70.93L73.234 18.4056H73.3362L75.5956 12.0234H81.5676L81.5637 23.3839Z" fill="white"/>
<path d="M83.7637 23.3839V12.0234H87.5491V23.3876L83.7637 23.3839Z" fill="white"/>
<path d="M102.728 13.1564C104.004 14.1526 104.642 15.6805 104.642 17.7402C104.642 19.7998 104.004 21.3277 102.728 22.3239C101.451 23.3201 99.557 23.8182 97.0446 23.8182C94.5399 23.8182 92.6496 23.3201 91.3737 22.3239C90.0978 21.3277 89.4588 19.7998 89.4568 17.7402C89.4568 15.682 90.095 14.1541 91.3714 13.1564C92.6478 12.1587 94.5381 11.6606 97.0423 11.6621C99.5562 11.6606 101.451 12.1587 102.728 13.1564ZM99.6243 19.9607C100.201 19.4457 100.489 18.7055 100.49 17.7402C100.49 16.7749 100.202 16.0347 99.6243 15.5197C99.0478 15.0051 98.1871 14.7478 97.0423 14.7478C95.8975 14.7478 95.0391 15.0051 94.4672 15.5197C93.8948 16.0347 93.6086 16.7749 93.6086 17.7402C93.6086 18.7055 93.8948 19.4457 94.4672 19.9607C95.0396 20.4752 95.898 20.7325 97.0423 20.7325C98.1866 20.7325 99.0473 20.4752 99.6243 19.9607Z" fill="white"/>
<path d="M114.686 14.5099C114.269 14.3106 113.67 14.211 112.888 14.211C112.086 14.211 111.514 14.2932 111.171 14.4576C110.829 14.6219 110.657 14.8633 110.657 15.1815C110.65 15.2931 110.675 15.4045 110.729 15.503C110.783 15.6015 110.865 15.6832 110.965 15.7389C111.169 15.8555 111.521 15.9404 112.021 15.9937L116.29 16.3755C117.582 16.492 118.553 16.8263 119.203 17.3782C119.853 17.9301 120.178 18.7631 120.178 19.8774C120.178 20.9279 119.917 21.7395 119.393 22.3123C118.87 22.8852 118.102 23.2804 117.089 23.4981C116.076 23.7157 114.739 23.8246 113.077 23.8246C111.481 23.8246 110.19 23.7078 109.203 23.4742C108.216 23.2406 107.455 22.8214 106.921 22.2167C106.388 21.6125 106.102 20.7583 106.063 19.654H110.47C110.578 20.2592 110.849 20.6758 111.284 20.904C111.719 21.1321 112.367 21.2462 113.229 21.2462C114.109 21.2462 114.742 21.1585 115.129 20.9832C115.515 20.8078 115.708 20.5339 115.708 20.1613C115.708 19.8535 115.595 19.6293 115.371 19.4889C115.146 19.3484 114.808 19.2582 114.358 19.2184L110.25 18.7888C108.949 18.6513 107.971 18.3275 107.316 17.8175C106.661 17.3074 106.333 16.4955 106.333 15.3818C106.333 14.4354 106.594 13.69 107.118 13.1456C107.641 12.6011 108.389 12.2164 109.363 11.9912C110.335 11.7686 111.555 11.6572 113.023 11.6572C114.48 11.6572 115.693 11.7713 116.662 11.9994C117.63 12.2276 118.386 12.6228 118.929 13.1852C119.472 13.7475 119.758 14.5168 119.787 15.4931H115.429C115.399 15.2819 115.316 15.0813 115.186 14.9095C115.056 14.7378 114.884 14.6004 114.686 14.5099Z" fill="white"/>
<mask id="path-7-outside-1_423_15566" maskUnits="userSpaceOnUse" x="-0.0151367" y="4.74707" width="32" height="26" fill="black">
<rect fill="white" x="-0.0151367" y="4.74707" width="32" height="26"/>
<path fill-rule="evenodd" clip-rule="evenodd" d="M17.4166 27.1969C16.9497 27.2549 16.4736 27.2848 15.9904 27.2848C15.5035 27.2848 15.0239 27.2545 14.5535 27.1956C14.3309 28.4164 13.6865 29.3196 12.7691 29.6267C12.0055 29.8836 11.2754 29.6526 11.1953 29.6272L11.1937 29.6267C9.47389 29.0529 8.98491 26.5829 8.8581 24.7732C7.96146 24.0447 7.18522 23.1817 6.5625 22.216C6.51344 22.4213 6.47482 22.6085 6.43949 22.7796C6.29431 23.4831 6.20473 23.9171 5.67501 24.2377C4.88498 24.7163 3.88988 24.4763 3.83727 24.4628C2.81896 24.2017 2.37249 23.3325 2.26183 23.1127C1.17853 20.9961 3.60668 18.4093 3.83727 18.1685C4.18997 17.802 4.5541 17.5022 4.90599 17.254C4.88896 17.0101 4.88031 16.764 4.88031 16.516C4.88031 10.5685 9.85445 5.74707 15.9904 5.74707C22.1263 5.74707 27.1004 10.5685 27.1004 16.516C27.1004 16.7685 27.0914 17.0191 27.0738 17.2673C27.4191 17.5128 27.7759 17.8085 28.1218 18.1685C28.3633 18.4093 30.7922 20.9961 29.7073 23.1127C29.5974 23.331 29.151 24.2002 28.1327 24.4628C28.0801 24.4763 27.085 24.7163 26.2949 24.2377C25.7681 23.9178 25.6786 23.4848 25.5336 22.784C25.4985 22.6144 25.4602 22.4292 25.4117 22.2261C24.7874 23.1919 24.0094 24.0548 23.1109 24.7826C22.9833 26.5915 22.493 29.0539 20.7763 29.6267L20.7746 29.6272C20.6945 29.6526 19.9644 29.8836 19.2008 29.6267C18.2838 29.3197 17.6395 28.4171 17.4166 27.1969Z"/>
</mask>
<path fill-rule="evenodd" clip-rule="evenodd" d="M17.4166 27.1969C16.9497 27.2549 16.4736 27.2848 15.9904 27.2848C15.5035 27.2848 15.0239 27.2545 14.5535 27.1956C14.3309 28.4164 13.6865 29.3196 12.7691 29.6267C12.0055 29.8836 11.2754 29.6526 11.1953 29.6272L11.1937 29.6267C9.47389 29.0529 8.98491 26.5829 8.8581 24.7732C7.96146 24.0447 7.18522 23.1817 6.5625 22.216C6.51344 22.4213 6.47482 22.6085 6.43949 22.7796C6.29431 23.4831 6.20473 23.9171 5.67501 24.2377C4.88498 24.7163 3.88988 24.4763 3.83727 24.4628C2.81896 24.2017 2.37249 23.3325 2.26183 23.1127C1.17853 20.9961 3.60668 18.4093 3.83727 18.1685C4.18997 17.802 4.5541 17.5022 4.90599 17.254C4.88896 17.0101 4.88031 16.764 4.88031 16.516C4.88031 10.5685 9.85445 5.74707 15.9904 5.74707C22.1263 5.74707 27.1004 10.5685 27.1004 16.516C27.1004 16.7685 27.0914 17.0191 27.0738 17.2673C27.4191 17.5128 27.7759 17.8085 28.1218 18.1685C28.3633 18.4093 30.7922 20.9961 29.7073 23.1127C29.5974 23.331 29.151 24.2002 28.1327 24.4628C28.0801 24.4763 27.085 24.7163 26.2949 24.2377C25.7681 23.9178 25.6786 23.4848 25.5336 22.784C25.4985 22.6144 25.4602 22.4292 25.4117 22.2261C24.7874 23.1919 24.0094 24.0548 23.1109 24.7826C22.9833 26.5915 22.493 29.0539 20.7763 29.6267L20.7746 29.6272C20.6945 29.6526 19.9644 29.8836 19.2008 29.6267C18.2838 29.3197 17.6395 28.4171 17.4166 27.1969Z" fill="black"/>
<path d="M17.4166 27.1969L18.4004 27.0173L18.2307 26.0881L17.2934 26.2045L17.4166 27.1969ZM14.5535 27.1956L14.6777 26.2033L13.7394 26.0859L13.5698 27.0162L14.5535 27.1956ZM12.7691 29.6267L12.4517 28.6784L12.4502 28.6789L12.7691 29.6267ZM11.1953 29.6272L10.8936 30.5806L10.8936 30.5806L11.1953 29.6272ZM11.1937 29.6267L10.8772 30.5753L10.8846 30.5777L10.892 30.5801L11.1937 29.6267ZM8.8581 24.7732L9.85565 24.7033L9.82533 24.2705L9.48864 23.997L8.8581 24.7732ZM6.5625 22.216L7.4029 21.674L6.13397 19.7063L5.58987 21.9836L6.5625 22.216ZM6.43949 22.7796L5.46013 22.5775H5.46013L6.43949 22.7796ZM5.67501 24.2377L5.1572 23.3823L5.15694 23.3824L5.67501 24.2377ZM3.83727 24.4628L4.08579 23.4941L4.08556 23.4941L3.83727 24.4628ZM2.26183 23.1127L3.15502 22.663L3.15201 22.6571L2.26183 23.1127ZM3.83727 18.1685L3.11671 17.4751L3.11507 17.4768L3.83727 18.1685ZM4.90599 17.254L5.48243 18.0711L5.9428 17.7463L5.90356 17.1843L4.90599 17.254ZM27.0738 17.2673L26.0763 17.1963L26.0365 17.7567L26.4943 18.0823L27.0738 17.2673ZM28.1218 18.1685L27.4008 18.8614L27.4082 18.8691L27.4157 18.8766L28.1218 18.1685ZM29.7073 23.1127L28.8174 22.6566L28.8141 22.663L29.7073 23.1127ZM28.1327 24.4628L28.3812 25.4314L28.3823 25.4311L28.1327 24.4628ZM26.2949 24.2377L25.7758 25.0924L25.7769 25.0931L26.2949 24.2377ZM25.5336 22.784L24.5543 22.9865L24.5543 22.9865L25.5336 22.784ZM25.4117 22.2261L26.3843 21.9937L25.841 19.7201L24.5719 21.6832L25.4117 22.2261ZM23.1109 24.7826L22.4815 24.0056L22.144 24.279L22.1134 24.7122L23.1109 24.7826ZM20.7763 29.6267L21.0775 30.5802L21.0851 30.5778L21.0927 30.5753L20.7763 29.6267ZM20.7746 29.6272L20.4734 28.6737L20.4729 28.6738L20.7746 29.6272ZM19.2008 29.6267L19.5197 28.6789L19.5182 28.6784L19.2008 29.6267ZM15.9904 28.2848C16.5149 28.2848 17.0321 28.2524 17.5399 28.1893L17.2934 26.2045C16.8672 26.2575 16.4323 26.2848 15.9904 26.2848V28.2848ZM14.4293 28.1879C14.9408 28.2519 15.4619 28.2848 15.9904 28.2848V26.2848C15.5451 26.2848 15.107 26.2571 14.6777 26.2033L14.4293 28.1879ZM13.5698 27.0162C13.3874 28.0163 12.9083 28.5256 12.4517 28.6784L13.0865 30.575C14.4647 30.1137 15.2745 28.8165 15.5373 27.375L13.5698 27.0162ZM12.4502 28.6789C12.2425 28.7488 12.0206 28.7573 11.8255 28.7378C11.6348 28.7187 11.5061 28.6767 11.497 28.6738L10.8936 30.5806C11.0066 30.6164 12.0031 30.9395 13.088 30.5745L12.4502 28.6789ZM11.497 28.6738L11.4954 28.6733L10.892 30.5801L10.8936 30.5806L11.497 28.6738ZM11.5101 28.6781C11.062 28.5286 10.6681 28.0984 10.3615 27.3036C10.0604 26.5229 9.91615 25.5665 9.85565 24.7033L7.86054 24.8431C7.92686 25.7895 8.09047 26.973 8.49551 28.0232C8.89508 29.0593 9.60558 30.1511 10.8772 30.5753L11.5101 28.6781ZM5.72209 22.758C6.4028 23.8135 7.25024 24.7554 8.22756 25.5493L9.48864 23.997C8.67268 23.3341 7.96764 22.5498 7.4029 21.674L5.72209 22.758ZM5.58987 21.9836C5.53674 22.206 5.49524 22.4074 5.46013 22.5775L7.41885 22.9818C7.45439 22.8095 7.49014 22.6367 7.53512 22.4484L5.58987 21.9836ZM5.46013 22.5775C5.3806 22.9628 5.34171 23.1263 5.29 23.2408C5.27133 23.2822 5.25705 23.3013 5.2468 23.3129C5.23636 23.3248 5.21273 23.3486 5.1572 23.3823L6.19283 25.0932C7.14502 24.5169 7.28551 23.6278 7.41885 22.9818L5.46013 22.5775ZM5.15694 23.3824C4.97919 23.4901 4.73935 23.5361 4.4849 23.5348C4.23798 23.5335 4.06133 23.4879 4.08579 23.4941L3.58874 25.4314C3.66582 25.4512 4.01303 25.5323 4.47431 25.5347C4.92808 25.5371 5.5808 25.4639 6.19308 25.0931L5.15694 23.3824ZM4.08556 23.4941C3.52804 23.3512 3.25418 22.8599 3.155 22.663L1.36867 23.5624C1.4908 23.805 2.10988 25.0523 3.58898 25.4314L4.08556 23.4941ZM3.15201 22.6571C2.8402 22.0479 2.98437 21.2633 3.43982 20.4066C3.87563 19.5868 4.4654 18.9584 4.55946 18.8602L3.11507 17.4768C2.97854 17.6194 2.23894 18.4048 1.67386 19.4678C1.12842 20.4938 0.600165 22.061 1.37166 23.5683L3.15201 22.6571ZM4.55782 18.8619C4.86075 18.5471 5.17512 18.2879 5.48243 18.0711L4.32955 16.4368C3.93307 16.7165 3.51918 17.0569 3.11672 17.4751L4.55782 18.8619ZM3.88031 16.516C3.88031 16.7873 3.88977 17.0566 3.90842 17.3236L5.90356 17.1843C5.88815 16.9636 5.88031 16.7407 5.88031 16.516H3.88031ZM15.9904 4.74707C9.33179 4.74707 3.88031 9.98702 3.88031 16.516H5.88031C5.88031 11.1499 10.3771 6.74707 15.9904 6.74707V4.74707ZM28.1004 16.516C28.1004 9.98702 22.6489 4.74707 15.9904 4.74707V6.74707C21.6036 6.74707 26.1004 11.1499 26.1004 16.516H28.1004ZM28.0713 17.3382C28.0906 17.0664 28.1004 16.7922 28.1004 16.516H26.1004C26.1004 16.7448 26.0923 16.9717 26.0763 17.1963L28.0713 17.3382ZM26.4943 18.0823C26.7955 18.2964 27.1035 18.552 27.4008 18.8614L28.8429 17.4757C28.4482 17.0649 28.0427 16.7292 27.6533 16.4523L26.4943 18.0823ZM27.4157 18.8766C27.4987 18.9593 28.0919 19.5867 28.5295 20.4076C28.9857 21.2635 29.1295 22.0477 28.8174 22.6566L30.5972 23.5688C31.37 22.0612 30.8417 20.4936 30.2944 19.4668C29.7284 18.405 28.9864 17.6185 28.828 17.4604L27.4157 18.8766ZM28.8141 22.663C28.716 22.858 28.4418 23.3504 27.883 23.4944L28.3823 25.4311C29.8602 25.0501 30.4789 23.8039 30.6005 23.5624L28.8141 22.663ZM27.8841 23.4941C27.9086 23.4879 27.732 23.5335 27.485 23.5348C27.2306 23.5361 26.9907 23.4901 26.813 23.3824L25.7769 25.0931C26.3891 25.4639 27.0419 25.5371 27.4956 25.5347C27.9569 25.5323 28.3041 25.4512 28.3812 25.4314L27.8841 23.4941ZM26.814 23.383C26.7592 23.3497 26.7359 23.3262 26.7256 23.3144C26.7155 23.3029 26.7013 23.2839 26.6827 23.2426C26.6311 23.1283 26.5923 22.9653 26.5129 22.5814L24.5543 22.9865C24.6874 23.6298 24.8279 24.5167 25.7758 25.0924L26.814 23.383ZM26.5129 22.5814C26.478 22.4129 26.4368 22.2136 26.3843 21.9937L24.4391 22.4585C24.4836 22.6448 24.519 22.816 24.5543 22.9865L26.5129 22.5814ZM23.7404 25.5596C24.7197 24.7663 25.569 23.8247 26.2515 22.769L24.5719 21.6832C24.0057 22.5591 23.2991 23.3432 22.4815 24.0056L23.7404 25.5596ZM22.1134 24.7122C22.0526 25.5749 21.9078 26.5291 21.6068 27.3076C21.3004 28.1 20.9072 28.5288 20.4598 28.6781L21.0927 30.5753C22.3622 30.1518 23.0724 29.063 23.4723 28.0288C23.8775 26.9807 24.0417 25.7991 24.1085 24.853L22.1134 24.7122ZM20.475 28.6731L20.4734 28.6737L21.0759 30.5808L21.0775 30.5802L20.475 28.6731ZM20.4729 28.6738C20.4639 28.6767 20.3352 28.7187 20.1445 28.7378C19.9494 28.7573 19.7275 28.7488 19.5197 28.6789L18.882 30.5745C19.9668 30.9395 20.9633 30.6164 21.0763 30.5806L20.4729 28.6738ZM19.5182 28.6784C19.0618 28.5256 18.5829 28.0166 18.4004 27.0173L16.4329 27.3766C16.6961 28.8175 17.5058 30.1139 18.8834 30.575L19.5182 28.6784Z" fill="white" mask="url(#path-7-outside-1_423_15566)"/>
<path d="M15.9906 22.1789C20.0773 22.1789 23.3903 19.6436 23.3903 16.5162C23.3903 13.3888 20.0773 10.8535 15.9906 10.8535C11.9038 10.8535 8.59082 13.3888 8.59082 16.5162C8.59082 19.6436 11.9038 22.1789 15.9906 22.1789Z" fill="white"/>
<path d="M12.8202 18.4515C14.0936 18.4515 14.9212 17.1695 14.9212 15.8754C14.9212 14.5812 14.0936 13.2993 12.8202 13.2993C11.5468 13.2993 10.7192 14.5812 10.7192 15.8754C10.7192 17.1695 11.5468 18.4515 12.8202 18.4515Z" fill="black" stroke="white"/>
<path d="M18.8898 18.4515C20.1632 18.4515 20.9908 17.1695 20.9908 15.8754C20.9908 14.5812 20.1632 13.2993 18.8898 13.2993C17.6164 13.2993 16.7888 14.5812 16.7888 15.8754C16.7888 17.1695 17.6164 18.4515 18.8898 18.4515Z" fill="black" stroke="white"/>
</svg>

<svg width="121" height="35" fill="none" xmlns="http://www.w3.org/2000/svg"><path d="M35.89 23.384v-11.36h3.785v8.212h8.187v3.152l-11.973-.004ZM62.915 12.023v6.399c0 1.337-.264 2.4-.792 3.191-.527.79-1.283 1.35-2.267 1.68-.983.329-2.212.493-3.686.493-1.475 0-2.703-.165-3.687-.493-.982-.329-1.738-.886-2.267-1.672-.528-.785-.792-1.852-.792-3.199v-6.399h3.785v6.288c0 .816.255 1.405.764 1.766s1.242.542 2.2.542c.95 0 1.68-.18 2.194-.542.514-.361.77-.95.768-1.766v-6.288h3.78ZM81.564 23.384h-3.786v-7.735h-.088l-2.995 7.735H71.84l-3.037-7.831H68.7v7.83h-3.58v-11.36h5.81l2.304 6.383h.102l2.26-6.383h5.972l-.004 11.36ZM83.764 23.384v-11.36h3.785v11.364l-3.785-.004ZM102.728 13.156c1.276.997 1.914 2.524 1.914 4.584 0 2.06-.638 3.588-1.914 4.584-1.277.996-3.171 1.494-5.683 1.494-2.505 0-4.395-.498-5.671-1.494-1.276-.996-1.915-2.524-1.917-4.584 0-2.058.638-3.586 1.914-4.584 1.277-.997 3.167-1.495 5.671-1.494 2.514-.001 4.409.497 5.686 1.494Zm-3.104 6.805c.577-.515.865-1.255.866-2.22 0-.966-.288-1.706-.866-2.221-.576-.515-1.437-.772-2.582-.772-1.145 0-2.003.257-2.575.772-.572.515-.858 1.255-.858 2.22 0 .966.286 1.706.858 2.22.573.515 1.431.773 2.575.773 1.145 0 2.005-.258 2.582-.772ZM114.686 14.51c-.417-.2-1.016-.299-1.798-.299-.802 0-1.374.082-1.717.247-.342.164-.514.405-.514.723a.592.592 0 0 0 .308.558c.204.116.556.201 1.056.255l4.269.381c1.292.117 2.263.451 2.913 1.003.65.552.975 1.385.975 2.5 0 1.05-.261 1.861-.785 2.434-.523.573-1.291.968-2.304 1.186-1.013.218-2.35.327-4.012.327-1.596 0-2.887-.117-3.874-.35-.987-.234-1.748-.654-2.282-1.258-.533-.604-.819-1.459-.858-2.563h4.407c.108.605.379 1.022.814 1.25.435.228 1.083.342 1.945.342.88 0 1.513-.087 1.9-.263.386-.175.579-.45.579-.822 0-.308-.113-.532-.337-.672-.225-.14-.563-.23-1.013-.27l-4.108-.43c-1.301-.138-2.279-.462-2.934-.972-.655-.51-.983-1.322-.983-2.435 0-.947.261-1.692.785-2.236.523-.545 1.271-.93 2.245-1.155.972-.222 2.192-.334 3.66-.334 1.457 0 2.67.114 3.639.342.968.229 1.724.624 2.267 1.186.543.563.829 1.332.858 2.308h-4.358a1.26 1.26 0 0 0-.243-.584 1.31 1.31 0 0 0-.5-.4Z" fill="#fff"/><mask id="a" maskUnits="userSpaceOnUse" x="-.015" y="4.747" width="32" height="26" fill="#000"><path fill="#fff" d="M-.015 4.747h32v26h-32z"/><path fill-rule="evenodd" clip-rule="evenodd" d="M17.417 27.197a11.567 11.567 0 0 1-2.864-.001c-.222 1.22-.867 2.124-1.784 2.43-.764.258-1.494.027-1.574.001h-.001c-1.72-.574-2.21-3.044-2.336-4.854a10.933 10.933 0 0 1-2.296-2.557c-.049.205-.087.392-.123.564-.145.703-.234 1.137-.764 1.458-.79.478-1.785.238-1.838.225-1.018-.261-1.465-1.13-1.575-1.35-1.083-2.117 1.345-4.704 1.575-4.944a7.385 7.385 0 0 1 1.069-.915c-.017-.244-.026-.49-.026-.738 0-5.947 4.974-10.769 11.11-10.769 6.136 0 11.11 4.822 11.11 10.769 0 .253-.009.503-.026.751.345.246.702.541 1.048.902.241.24 2.67 2.827 1.585 4.944-.11.218-.556 1.087-1.574 1.35-.053.013-1.048.253-1.838-.225-.527-.32-.616-.753-.761-1.454-.035-.17-.074-.355-.122-.558a10.93 10.93 0 0 1-2.301 2.557c-.128 1.808-.618 4.27-2.335 4.844h-.001c-.08.026-.81.257-1.574 0-.917-.307-1.561-1.21-1.784-2.43Z"/></mask><path fill-rule="evenodd" clip-rule="evenodd" d="M17.417 27.197a11.567 11.567 0 0 1-2.864-.001c-.222 1.22-.867 2.124-1.784 2.43-.764.258-1.494.027-1.574.001h-.001c-1.72-.574-2.21-3.044-2.336-4.854a10.933 10.933 0 0 1-2.296-2.557c-.049.205-.087.392-.123.564-.145.703-.234 1.137-.764 1.458-.79.478-1.785.238-1.838.225-1.018-.261-1.465-1.13-1.575-1.35-1.083-2.117 1.345-4.704 1.575-4.944a7.385 7.385 0 0 1 1.069-.915c-.017-.244-.026-.49-.026-.738 0-5.947 4.974-10.769 11.11-10.769 6.136 0 11.11 4.822 11.11 10.769 0 .253-.009.503-.026.751.345.246.702.541 1.048.902.241.24 2.67 2.827 1.585 4.944-.11.218-.556 1.087-1.574 1.35-.053.013-1.048.253-1.838-.225-.527-.32-.616-.753-.761-1.454-.035-.17-.074-.355-.122-.558a10.93 10.93 0 0 1-2.301 2.557c-.128 1.808-.618 4.27-2.335 4.844h-.001c-.08.026-.81.257-1.574 0-.917-.307-1.561-1.21-1.784-2.43Z" fill="#000"/><path d="m17.417 27.197.983-.18-.17-.929-.937.116.124.993Zm-2.864-.001.125-.993-.939-.117-.17.93.984.18Zm-1.784 2.43-.317-.948h-.002l.32.949Zm-1.574.001-.301.954.301-.954Zm-.001 0-.317.948.008.003.007.002.302-.953Zm-2.336-4.854.998-.07-.03-.433-.337-.273-.63.776Zm-2.296-2.557.84-.542-1.268-1.968-.544 2.278.973.232Zm-.123.564-.979-.203.98.203Zm-.764 1.458-.518-.856.518.856Zm-1.838.225.249-.969-.249.969Zm-1.575-1.35.893-.45-.003-.006-.89.456Zm1.575-4.944-.72-.694-.002.002.722.692Zm1.069-.915.576.817.46-.325-.038-.562-.998.07Zm22.168.013-.998-.07-.04.56.458.325.58-.815Zm1.048.902-.721.692.007.008.008.008.706-.708Zm1.585 4.944-.89-.456-.003.006.893.45Zm-1.574 1.35.248.968h.001l-.25-.968Zm-1.838-.225-.52.854.002.001.518-.855Zm-.761-1.454-.98.203.98-.203Zm-.122-.558.972-.232-.543-2.274-1.27 1.963.84.543Zm-2.301 2.557-.63-.777-.337.273-.03.433.997.07Zm-2.335 4.844.302.953.007-.002.008-.003-.317-.948Zm-.001 0-.302-.953.302.953Zm-1.574 0 .319-.948h-.002l-.317.948Zm-3.21-1.342c.524 0 1.041-.033 1.549-.096l-.247-1.985c-.426.053-.86.08-1.303.08v2Zm-1.562-.097a12.57 12.57 0 0 0 1.561.097v-2c-.445 0-.883-.028-1.312-.082l-.249 1.985Zm-.86-1.172c-.182 1-.66 1.51-1.117 1.662l.634 1.897c1.379-.461 2.188-1.758 2.451-3.2l-1.967-.359ZM12.45 28.68a1.51 1.51 0 0 1-.624.059c-.191-.02-.32-.061-.329-.064l-.603 1.907c.113.035 1.11.358 2.194-.006l-.638-1.896Zm-.953-.005h-.002l-.603 1.906h.002l.603-1.906Zm.013.004c-.448-.15-.842-.58-1.149-1.374-.3-.781-.445-1.737-.505-2.6l-1.995.14c.066.945.23 2.129.635 3.18.4 1.035 1.11 2.127 2.381 2.551l.633-1.897Zm-5.788-5.92a11.932 11.932 0 0 0 2.506 2.791l1.26-1.552a9.932 9.932 0 0 1-2.085-2.323l-1.68 1.084Zm-.132-.774c-.053.222-.095.423-.13.593l1.959.405c.035-.172.071-.345.116-.534l-1.945-.464Zm-.13.593c-.08.386-.118.55-.17.664a.272.272 0 0 1-.043.072.372.372 0 0 1-.09.07l1.036 1.71c.952-.576 1.093-1.465 1.226-2.111l-1.959-.404Zm-.303.805c-.178.108-.418.154-.672.153-.247-.002-.424-.047-.4-.04L3.59 25.43c.077.02.424.101.885.104.454.002 1.107-.071 1.72-.442l-1.037-1.71Zm-1.071.112c-.558-.143-.832-.634-.931-.831l-1.786.9c.122.242.74 1.49 2.22 1.868l.497-1.937Zm-.934-.837c-.312-.61-.168-1.394.288-2.25a7.545 7.545 0 0 1 1.12-1.547l-1.445-1.383a9.534 9.534 0 0 0-1.441 1.99c-.546 1.027-1.074 2.594-.302 4.101l1.78-.91Zm1.406-3.795c.303-.315.617-.574.924-.79L4.33 16.436c-.397.28-.81.62-1.213 1.038l1.44 1.387Zm-.678-2.346c0 .271.01.54.028.808l1.996-.14a9.595 9.595 0 0 1-.024-.668h-2ZM15.99 4.747c-6.658 0-12.11 5.24-12.11 11.769h2c0-5.366 4.497-9.769 10.11-9.769v-2ZM28.1 16.516c0-6.529-5.451-11.769-12.11-11.769v2c5.614 0 10.11 4.403 10.11 9.769h2Zm-.029.822c.02-.272.03-.546.03-.822h-2c0 .229-.009.456-.025.68l1.995.142Zm-1.577.744c.302.214.61.47.907.78l1.442-1.386c-.395-.411-.8-.747-1.19-1.024l-1.159 1.63Zm.922.795c.083.082.676.71 1.113 1.53.457.857.6 1.64.288 2.25l1.78.912c.773-1.508.245-3.075-.303-4.102a9.264 9.264 0 0 0-1.466-2.007l-1.412 1.417Zm1.398 3.786c-.098.195-.372.687-.931.831l.5 1.937c1.477-.38 2.096-1.627 2.218-1.869l-1.787-.899Zm-.93.831c.025-.006-.152.04-.399.04-.254.002-.494-.044-.672-.152l-1.036 1.711c.612.37 1.265.444 1.719.442.46-.003.808-.084.885-.104l-.497-1.937Zm-1.07-.111a.365.365 0 0 1-.088-.069.273.273 0 0 1-.043-.071c-.052-.115-.09-.278-.17-.662l-1.959.405c.133.644.274 1.53 1.222 2.106l1.038-1.709Zm-.301-.802c-.035-.168-.076-.367-.129-.587l-1.945.465c.045.186.08.357.115.527l1.959-.405ZM23.74 25.56a11.933 11.933 0 0 0 2.512-2.791l-1.68-1.086a9.933 9.933 0 0 1-2.09 2.323l1.258 1.554Zm-1.627-.848c-.06.863-.205 1.817-.506 2.596-.307.792-.7 1.22-1.147 1.37l.633 1.897c1.27-.423 1.98-1.512 2.38-2.546.405-1.048.569-2.23.636-3.176l-1.996-.14Zm-1.638 3.961h-.002l.603 1.908h.002l-.603-1.908Zm-.002 0c-.01.004-.138.046-.328.065a1.51 1.51 0 0 1-.625-.06l-.638 1.896c1.085.365 2.081.042 2.194.007l-.603-1.907Zm-.955.005c-.456-.152-.935-.661-1.118-1.66l-1.967.359c.263 1.44 1.073 2.737 2.45 3.198l.635-1.897Z" fill="#fff" mask="url(#a)"/><path d="M15.99 22.179c4.087 0 7.4-2.535 7.4-5.663 0-3.127-3.313-5.662-7.4-5.662-4.086 0-7.4 2.535-7.4 5.662 0 3.128 3.314 5.663 7.4 5.663Z" fill="#fff"/><path d="M12.82 18.451c1.274 0 2.101-1.282 2.101-2.576s-.827-2.576-2.1-2.576c-1.274 0-2.102 1.282-2.102 2.576s.828 2.576 2.101 2.576ZM18.89 18.451c1.273 0 2.1-1.282 2.1-2.576s-.827-2.576-2.1-2.576c-1.274 0-2.101 1.282-2.101 2.576s.827 2.576 2.1 2.576Z" fill="#000" stroke="#fff"/></svg>
